src/images/bnft.svg

<svg version="1.0" xmlns="http://www.w3.org/2000/svg"  width="900.000000pt" height="903.000000pt" viewBox="0 0 900.000000 903.000000"  preserveAspectRatio="xMidYMid meet">  
 <g transform="translate(0.000000,903.000000) scale(0.100000,-0.100000)" fill="#000000" stroke="none"> 
 <path d="M7065 8364 c-129 -14 -282 -73 -408 -158 -34 -24 -107 -73 -162 -111 -55 -37 -197 -133 -315 -213 -211 -143 -422 -286 -570 -387 -41 -28 -167 -114 -279 -190 l-205 -138 -65 12 c-220 36 -296 42 -565 42 -264 0 -417 -11 -569 -41 -74 -15 -85 -13 -140 28 -28 20 -59 42 -69 47 -9 6 -56 37 -103 70 -48 33 -97 67 -110 75 -13 8 -97 65 -187 126 -90 61 -233 158 -318 215 -85 58 -190 130 -233 160 -43 30 -86 59 -95 64 -10 6 -33 21 -52 35 -19 14 -42 30 -51 35 -10 6 -88 58 -176 116 -138 93 -184 119 -278 160 -101 45 -333 62 -461 35 -319 -68 -551 -280 -651 -596 -24 -77 -27 -99 -27 -240 0 -100 6 -189 17 -250 9 -52 23 -147 32 -210 9 -63 22 -155 30 -205 8 -49 21 -142 30 -205 9 -63 22 -158 30 -210 28 -185 44 -296 60 -415 9 -66 23 -158 30 -205 8 -47 17 -107 20 -135 3 -27 10 -77 15 -110 5 -33 16 -109 25 -170 9 -60 20 -137 25 -170 51 -332 55 -383 37 -442 -8 -26 -22 -86 -32 -133 -9 -47 -23 -114 -30 -150 -27 -131 -40 -310 -40 -550 0 -297 10 -398 71 -700 23 -110 86 -330 120 -415 9 -22 23 -58 31 -80 40 -103 102 -237 172 -367 44 -82 51 -95 99 -166 23 -35 42 -65 42 -67 0 -5 90 -134 125 -179 277 -358 609 -649 983 -864 88 -50 329 -167 407 -197 39 -14 86 -33 105 -41 124 -50 400 -121 575 -148 416 -64 654 -64 1070 0 167 26 390 81 483 120 18 8 39 14 47 14 8 0 29 6 47 14 18 8 88 37 155 66 235 97 505 250 673 380 244 188 388 325 570 540 75 87 180 228 215 288 6 9 28 44 50 77 22 33 45 69 50 80 6 11 31 56 55 100 56 104 54 100 85 170 56 125 62 141 80 185 9 25 22 56 27 70 40 101 98 305 123 430 9 47 23 114 30 150 55 268 55 801 -1 1090 -33 172 -47 237 -60 279 -18 56 -18 86 0 186 8 44 22 134 31 200 9 66 22 158 30 205 7 47 21 141 30 210 9 69 22 161 30 205 8 44 16 100 19 125 2 25 9 77 15 115 6 39 18 120 26 180 9 61 22 151 30 200 8 50 21 144 30 210 9 66 22 158 30 205 7 47 21 139 30 205 9 66 24 163 33 215 12 68 17 148 16 280 0 177 -2 188 -28 255 -15 39 -31 82 -36 97 -15 48 -115 191 -174 250 -103 102 -244 183 -380 218 -71 19 -245 32 -321 24z m-5159 -480 c68 -14 91 -25 221 -112 80 -53 155 -104 168 -112 13 -8 82 -55 155 -105 72 -49 142 -97 155 -105 13 -8 59 -39 102 -69 151 -105 315 -216 377 -256 35 -22 79 -53 99 -68 20 -15 41 -27 47 -27 29 0 0 -34 -45 -52 -46 -19 -109 -48 -145 -67 -8 -4 -31 -16 -50 -26 -117 -60 -167 -88 -196 -110 -18 -14 -35 -25 -39 -25 -12 0 -165 -103 -165 -111 0 -5 -5 -9 -10 -9 -14 0 -110 -72 -110 -82 0 -4 -5 -8 -11 -8 -7 0 -31 -17 -54 -37 -23 -21 -75 -67 -116 -103 -127 -111 -215 -205 -401 -430 -41 -49 -78 -99 -78 -104 0 -4 -10 -17 -21 -29 -12 -12 -27 -35 -35 -52 -7 -16 -23 -41 -34 -55 -17 -21 -21 -23 -30 -10 -5 8 -10 35 -10 60 0 25 -7 70 -15 100 -8 30 -15 73 -15 95 0 22 -5 56 -10 75 -6 19 -15 80 -20 134 -11 108 -23 185 -46 286 -8 36 -14 84 -14 107 0 44 -37 308 -46 333 -4 8 -10 49 -14 90 -15 137 -40 315 -50 344 -6 16 -10 83 -10 150 1 116 2 123 33 183 57 109 134 174 242 204 78 22 100 22 191 3z m5385 -1 c79 -23 170 -104 219 -195 34 -62 34 -65 34 -183 0 -66 -6 -142 -12 -170 -12 -47 -34 -203 -52 -360 -4 -38 -13 -95 -19 -125 -20 -99 -41 -255 -41 -302 0 -26 -5 -59 -11 -75 -6 -15 -14 -57 -19 -93 -26 -207 -32 -254 -46 -340 -8 -52 -21 -133 -29 -180 -16 -92 -33 -224 -45 -335 -4 -38 -12 -92 -18 -120 -18 -80 -42 -259 -42 -315 0 -28 -4 -60 -10 -70 -5 -10 -15 -64 -21 -120 -10 -92 -9 -108 9 -168 11 -37 28 -105 37 -152 9 -47 21 -103 27 -125 19 -75 28 -190 34 -440 6 -246 -3 -423 -27 -525 -24 -101 -49 -227 -49 -250 0 -14 -7 -34 -15 -44 -8 -11 -15 -32 -15 -46 0 -14 -4 -30 -8 -35 -5 -6 -19 -44 -32 -85 -13 -41 -29 -86 -35 -100 -7 -14 -21 -45 -31 -70 -76 -193 -278 -532 -393 -660 -22 -25 -41 -49 -41 -54 0 -11 -367 -376 -379 -376 -4 0 -21 -11 -37 -25 -36 -32 -206 -148 -294 -202 -61 -37 -182 -100 -292 -152 -26 -12 -50 -26 -53 -32 -4 -5 -17 -9 -29 -9 -13 0 -54 -13 -92 -29 -38 -16 -96 -37 -129 -46 -33 -9 -80 -23 -105 -30 -114 -34 -159 -45 -181 -45 -13 0 -60 -6 -104 -14 -276 -50 -523 -61 -725 -30 -259 38 -399 65 -475 90 -22 7 -67 20 -100 30 -104 29 -261 91 -370 147 -135 69 -198 102 -237 125 -58 34 -243 163 -282 197 -16 14 -33 25 -37 25 -10 0 -369 356 -384 381 -5 9 -31 43 -58 75 -59 74 -184 260 -227 339 -64 117 -76 141 -93 180 -9 22 -21 47 -26 55 -9 15 -63 146 -86 210 -27 77 -74 239 -90 315 -9 44 -23 107 -30 140 -15 64 -19 105 -34 336 -13 187 8 540 37 654 21 80 42 183 42 204 0 11 6 35 14 53 8 18 28 78 45 133 18 55 38 114 45 130 8 17 22 50 31 75 9 25 21 52 26 60 5 8 14 26 20 40 41 96 160 305 211 371 15 20 28 40 28 43 0 9 116 160 164 214 141 158 149 166 310 310 63 56 202 162 214 162 4 0 21 14 37 30 16 17 34 30 40 30 7 0 31 14 53 30 23 17 44 30 48 30 3 0 39 20 80 45 40 25 76 45 78 45 3 0 42 17 88 39 46 21 108 49 138 61 30 12 69 28 85 35 17 7 41 16 55 18 14 3 52 15 85 27 33 11 92 28 130 36 68 14 88 19 185 42 92 23 292 37 515 37 306 0 444 -15 641 -71 67 -19 86 -18 116 6 14 11 122 84 239 163 118 79 237 159 264 177 28 19 53 38 56 42 3 5 20 17 38 26 35 19 233 153 241 163 3 3 33 24 66 45 87 56 278 185 284 192 3 4 21 16 40 26 19 11 51 31 70 46 19 14 52 37 73 49 20 12 37 27 37 32 0 5 5 9 12 9 9 0 167 103 203 132 34 29 117 75 160 89 67 23 181 23 256 2z"/> 
 <path d="M2945 5349 c-94 -23 -150 -45 -186 -71 -21 -15 -42 -28 -47 -28 -10 0 -80 -75 -117 -125 -42 -56 -65 -100 -65 -123 0 -10 -7 -34 -16 -52 -13 -24 -17 -60 -17 -139 1 -114 21 -191 77 -284 39 -66 173 -197 201 -197 5 0 33 -12 62 -26 72 -33 160 -47 256 -40 72 6 95 13 187 55 47 22 128 81 166 122 38 42 94 131 94 150 0 8 6 23 14 34 29 43 45 224 26 290 -41 139 -75 200 -154 279 -78 79 -175 134 -261 148 -83 14 -178 17 -220 7z"/> 
 <path d="M5655 5349 c-169 -42 -273 -112 -358 -244 -81 -124 -108 -263 -78 -405 61 -288 340 -480 627 -432 167 28 326 153 406 319 l43 88 0 135 c0 127 -2 138 -27 191 -16 31 -28 59 -28 64 0 4 -14 26 -32 49 -103 135 -197 200 -328 227 -71 15 -181 19 -225 8z"/> 
 <path d="M3190 3821 c-93 -38 -130 -94 -196 -291 -25 -77 -25 -309 0 -395 43 -144 91 -242 164 -334 43 -54 173 -181 186 -181 5 0 17 -6 25 -14 44 -37 138 -80 261 -117 93 -27 327 -27 420 0 97 29 142 47 195 77 l47 26 47 -25 c51 -28 104 -49 201 -78 85 -25 327 -27 411 -4 68 20 199 74 220 92 8 7 19 13 23 13 15 0 124 87 178 143 77 79 129 157 172 258 51 120 66 200 66 344 0 143 -20 243 -68 345 -62 129 -188 189 -304 143 -57 -22 -86 -45 -125 -100 -31 -43 -33 -52 -33 -126 0 -46 6 -92 14 -110 36 -82 44 -164 22 -242 -27 -94 -41 -120 -99 -178 -92 -93 -204 -128 -334 -106 -92 16 -117 29 -220 116 -41 36 -128 73 -168 73 -44 0 -129 -39 -177 -81 -74 -65 -131 -95 -206 -107 -78 -13 -186 -1 -242 28 -126 65 -211 208 -210 351 1 45 25 146 40 164 7 8 12 45 13 82 0 52 -5 78 -23 111 -31 58 -81 104 -138 124 -60 22 -106 22 -162 -1z"/> 
 </g> 
 </svg>

<?xml version="1.0" standalone="no"?>
<!DOCTYPE svg PUBLIC "-//W3C//DTD SVG 1.0//EN" "http://www.w3.org/TR/2001/REC-SVG-20010904/DTD/svg10.dtd">
<svg xmlns="http://www.w3.org/2000/svg" xmlns:xlink="http://www.w3.org/1999/xlink" id="body_1" width="500" height="502">

<g transform="matrix(0.5555556 0 0 0.5555556 -0 0.33331978)">
	<g transform="matrix(0.1 0 -0 -0.1 0 903)">
        <path d="M7065 8364C 6936 8350 6783 8291 6657 8206C 6623 8182 6550 8133 6495 8095C 6440 8058 6298 7962 6180 7882C 5969 7739 5758 7596 5610 7495C 5569 7467 5443 7381 5331 7305L5331 7305L5126 7167L5061 7179C 4841 7215 4765 7221 4496 7221C 4232 7221 4079 7210 3927 7180C 3853 7165 3842 7167 3787 7208C 3759 7228 3728 7250 3718 7255C 3709 7261 3662 7292 3615 7325C 3567 7358 3518 7392 3505 7400C 3492 7408 3408 7465 3318 7526C 3228 7587 3085 7684 3000 7741C 2915 7799 2810 7871 2767 7901C 2724 7931 2681 7960 2672 7965C 2662 7971 2639 7986 2620 8000C 2601 8014 2578 8030 2569 8035C 2559 8041 2481 8093 2393 8151C 2255 8244 2209 8270 2115 8311C 2014 8356 1782 8373 1654 8346C 1335 8278 1103 8066 1003 7750C 979 7673 976 7651 976 7510C 976 7410 982 7321 993 7260C 1002 7208 1016 7113 1025 7050C 1034 6987 1047 6895 1055 6845C 1063 6796 1076 6703 1085 6640C 1094 6577 1107 6482 1115 6430C 1143 6245 1159 6134 1175 6015C 1184 5949 1198 5857 1205 5810C 1213 5763 1222 5703 1225 5675C 1228 5648 1235 5598 1240 5565C 1245 5532 1256 5456 1265 5395C 1274 5335 1285 5258 1290 5225C 1341 4893 1345 4842 1327 4783C 1319 4757 1305 4697 1295 4650C 1286 4603 1272 4536 1265 4500C 1238 4369 1225 4190 1225 3950C 1225 3653 1235 3552 1296 3250C 1319 3140 1382 2920 1416 2835C 1425 2813 1439 2777 1447 2755C 1487 2652 1549 2518 1619 2388C 1663 2306 1670 2293 1718 2222C 1741 2187 1760 2157 1760 2155C 1760 2150 1850 2021 1885 1976C 2162 1618 2494 1327 2868 1112C 2956 1062 3197 945 3275 915C 3314 901 3361 882 3380 874C 3504 824 3780 753 3955 726C 4371 662 4609 662 5025 726C 5192 752 5415 807 5508 846C 5526 854 5547 860 5555 860C 5563 860 5584 866 5602 874C 5620 882 5690 911 5757 940C 5992 1037 6262 1190 6430 1320C 6674 1508 6818 1645 7000 1860C 7075 1947 7180 2088 7215 2148C 7221 2157 7243 2192 7265 2225C 7287 2258 7310 2294 7315 2305C 7321 2316 7346 2361 7370 2405C 7426 2509 7424 2505 7455 2575C 7511 2700 7517 2716 7535 2760C 7544 2785 7557 2816 7562 2830C 7602 2931 7660 3135 7685 3260C 7694 3307 7708 3374 7715 3410C 7770 3678 7770 4211 7714 4500C 7681 4672 7667 4737 7654 4779C 7636 4835 7636 4865 7654 4965C 7662 5009 7676 5099 7685 5165C 7694 5231 7707 5323 7715 5370C 7722 5417 7736 5511 7745 5580C 7754 5649 7767 5741 7775 5785C 7783 5829 7791 5885 7794 5910C 7796 5935 7803 5987 7809 6025C 7815 6064 7827 6145 7835 6205C 7844 6266 7857 6356 7865 6405C 7873 6455 7886 6549 7895 6615C 7904 6681 7917 6773 7925 6820C 7932 6867 7946 6959 7955 7025C 7964 7091 7979 7188 7988 7240C 8000 7308 8005 7388 8004 7520C 8004 7697 8002 7708 7976 7775C 7961 7814 7945 7857 7940 7872C 7925 7920 7825 8063 7766 8122C 7663 8224 7522 8305 7386 8340C 7315 8359 7141 8372 7065 8364zM1906 7884C 1974 7870 1997 7859 2127 7772C 2207 7719 2282 7668 2295 7660C 2308 7652 2377 7605 2450 7555C 2522 7506 2592 7458 2605 7450C 2618 7442 2664 7411 2707 7381C 2858 7276 3022 7165 3084 7125C 3119 7103 3163 7072 3183 7057C 3203 7042 3224 7030 3230 7030C 3259 7030 3230 6996 3185 6978C 3139 6959 3076 6930 3040 6911C 3032 6907 3009 6895 2990 6885C 2873 6825 2823 6797 2794 6775C 2776 6761 2759 6750 2755 6750C 2743 6750 2590 6647 2590 6639C 2590 6634 2585 6630 2580 6630C 2566 6630 2470 6558 2470 6548C 2470 6544 2465 6540 2459 6540C 2452 6540 2428 6523 2405 6503C 2382 6482 2330 6436 2289 6400C 2162 6289 2074 6195 1888 5970C 1847 5921 1810 5871 1810 5866C 1810 5862 1800 5849 1789 5837C 1777 5825 1762 5802 1754 5785C 1747 5769 1731 5744 1720 5730C 1703 5709 1699 5707 1690 5720C 1685 5728 1680 5755 1680 5780C 1680 5805 1673 5850 1665 5880C 1657 5910 1650 5953 1650 5975C 1650 5997 1645 6031 1640 6050C 1634 6069 1625 6130 1620 6184C 1609 6292 1597 6369 1574 6470C 1566 6506 1560 6554 1560 6577C 1560 6621 1523 6885 1514 6910C 1510 6918 1504 6959 1500 7000C 1485 7137 1460 7315 1450 7344C 1444 7360 1440 7427 1440 7494C 1441 7610 1442 7617 1473 7677C 1530 7786 1607 7851 1715 7881C 1793 7903 1815 7903 1906 7884zM7291 7883C 7370 7860 7461 7779 7510 7688C 7544 7626 7544 7623 7544 7505C 7544 7439 7538 7363 7532 7335C 7520 7288 7498 7132 7480 6975C 7476 6937 7467 6880 7461 6850C 7441 6751 7420 6595 7420 6548C 7420 6522 7415 6489 7409 6473C 7403 6458 7395 6416 7390 6380C 7364 6173 7358 6126 7344 6040C 7336 5988 7323 5907 7315 5860C 7299 5768 7282 5636 7270 5525C 7266 5487 7258 5433 7252 5405C 7234 5325 7210 5146 7210 5090C 7210 5062 7206 5030 7200 5020C 7195 5010 7185 4956 7179 4900C 7169 4808 7170 4792 7188 4732C 7199 4695 7216 4627 7225 4580C 7234 4533 7246 4477 7252 4455C 7271 4380 7280 4265 7286 4015C 7292 3769 7283 3592 7259 3490C 7235 3389 7210 3263 7210 3240C 7210 3226 7203 3206 7195 3196C 7187 3185 7180 3164 7180 3150C 7180 3136 7176 3120 7172 3115C 7167 3109 7153 3071 7140 3030C 7127 2989 7111 2944 7105 2930C 7098 2916 7084 2885 7074 2860C 6998 2667 6796 2328 6681 2200C 6659 2175 6640 2151 6640 2146C 6640 2135 6273 1770 6261 1770C 6257 1770 6240 1759 6224 1745C 6188 1713 6018 1597 5930 1543C 5869 1506 5748 1443 5638 1391C 5612 1379 5588 1365 5585 1359C 5581 1354 5568 1350 5556 1350C 5543 1350 5502 1337 5464 1321C 5426 1305 5368 1284 5335 1275C 5302 1266 5255 1252 5230 1245C 5116 1211 5071 1200 5049 1200C 5036 1200 4989 1194 4945 1186C 4669 1136 4422 1125 4220 1156C 3961 1194 3821 1221 3745 1246C 3723 1253 3678 1266 3645 1276C 3541 1305 3384 1367 3275 1423C 3140 1492 3077 1525 3038 1548C 2980 1582 2795 1711 2756 1745C 2740 1759 2723 1770 2719 1770C 2709 1770 2350 2126 2335 2151C 2330 2160 2304 2194 2277 2226C 2218 2300 2093 2486 2050 2565C 1986 2682 1974 2706 1957 2745C 1948 2767 1936 2792 1931 2800C 1922 2815 1868 2946 1845 3010C 1818 3087 1771 3249 1755 3325C 1746 3369 1732 3432 1725 3465C 1710 3529 1706 3570 1691 3801C 1678 3988 1699 4341 1728 4455C 1749 4535 1770 4638 1770 4659C 1770 4670 1776 4694 1784 4712C 1792 4730 1812 4790 1829 4845C 1847 4900 1867 4959 1874 4975C 1882 4992 1896 5025 1905 5050C 1914 5075 1926 5102 1931 5110C 1936 5118 1945 5136 1951 5150C 1992 5246 2111 5455 2162 5521C 2177 5541 2190 5561 2190 5564C 2190 5573 2306 5724 2354 5778C 2495 5936 2503 5944 2664 6088C 2727 6144 2866 6250 2878 6250C 2882 6250 2899 6264 2915 6280C 2931 6297 2949 6310 2955 6310C 2962 6310 2986 6324 3008 6340C 3031 6357 3052 6370 3056 6370C 3059 6370 3095 6390 3136 6415C 3176 6440 3212 6460 3214 6460C 3217 6460 3256 6477 3302 6499C 3348 6520 3410 6548 3440 6560C 3470 6572 3509 6588 3525 6595C 3542 6602 3566 6611 3580 6613C 3594 6616 3632 6628 3665 6640C 3698 6651 3757 6668 3795 6676C 3863 6690 3883 6695 3980 6718C 4072 6741 4272 6755 4495 6755C 4801 6755 4939 6740 5136 6684C 5203 6665 5222 6666 5252 6690C 5266 6701 5374 6774 5491 6853C 5609 6932 5728 7012 5755 7030C 5783 7049 5808 7068 5811 7072C 5814 7077 5831 7089 5849 7098C 5884 7117 6082 7251 6090 7261C 6093 7264 6123 7285 6156 7306C 6243 7362 6434 7491 6440 7498C 6443 7502 6461 7514 6480 7524C 6499 7535 6531 7555 6550 7570C 6569 7584 6602 7607 6623 7619C 6643 7631 6660 7646 6660 7651C 6660 7656 6665 7660 6672 7660C 6681 7660 6839 7763 6875 7792C 6909 7821 6992 7867 7035 7881C 7102 7904 7216 7904 7291 7883z" stroke="none" fill="#000000" fill-rule="nonzero" />
        <path d="M2945 5349C 2851 5326 2795 5304 2759 5278C 2738 5263 2717 5250 2712 5250C 2702 5250 2632 5175 2595 5125C 2553 5069 2530 5025 2530 5002C 2530 4992 2523 4968 2514 4950C 2501 4926 2497 4890 2497 4811C 2498 4697 2518 4620 2574 4527C 2613 4461 2747 4330 2775 4330C 2780 4330 2808 4318 2837 4304C 2909 4271 2997 4257 3093 4264C 3165 4270 3188 4277 3280 4319C 3327 4341 3408 4400 3446 4441C 3484 4483 3540 4572 3540 4591C 3540 4599 3546 4614 3554 4625C 3583 4668 3599 4849 3580 4915C 3539 5054 3505 5115 3426 5194C 3348 5273 3251 5328 3165 5342C 3082 5356 2987 5359 2945 5349z" stroke="none" fill="#000000" fill-rule="nonzero" />
        <path d="M5655 5349C 5486 5307 5382 5237 5297 5105C 5216 4981 5189 4842 5219 4700C 5280 4412 5559 4220 5846 4268C 6013 4296 6172 4421 6252 4587L6252 4587L6295 4675L6295 4810C 6295 4937 6293 4948 6268 5001C 6252 5032 6240 5060 6240 5065C 6240 5069 6226 5091 6208 5114C 6105 5249 6011 5314 5880 5341C 5809 5356 5699 5360 5655 5349z" stroke="none" fill="#000000" fill-rule="nonzero" />
        <path d="M3190 3821C 3097 3783 3060 3727 2994 3530C 2969 3453 2969 3221 2994 3135C 3037 2991 3085 2893 3158 2801C 3201 2747 3331 2620 3344 2620C 3349 2620 3361 2614 3369 2606C 3413 2569 3507 2526 3630 2489C 3723 2462 3957 2462 4050 2489C 4147 2518 4192 2536 4245 2566L4245 2566L4292 2592L4339 2567C 4390 2539 4443 2518 4540 2489C 4625 2464 4867 2462 4951 2485C 5019 2505 5150 2559 5171 2577C 5179 2584 5190 2590 5194 2590C 5209 2590 5318 2677 5372 2733C 5449 2812 5501 2890 5544 2991C 5595 3111 5610 3191 5610 3335C 5610 3478 5590 3578 5542 3680C 5480 3809 5354 3869 5238 3823C 5181 3801 5152 3778 5113 3723C 5082 3680 5080 3671 5080 3597C 5080 3551 5086 3505 5094 3487C 5130 3405 5138 3323 5116 3245C 5089 3151 5075 3125 5017 3067C 4925 2974 4813 2939 4683 2961C 4591 2977 4566 2990 4463 3077C 4422 3113 4335 3150 4295 3150C 4251 3150 4166 3111 4118 3069C 4044 3004 3987 2974 3912 2962C 3834 2949 3726 2961 3670 2990C 3544 3055 3459 3198 3460 3341C 3461 3386 3485 3487 3500 3505C 3507 3513 3512 3550 3513 3587C 3513 3639 3508 3665 3490 3698C 3459 3756 3409 3802 3352 3822C 3292 3844 3246 3844 3190 3821z" stroke="none" fill="#000000" fill-rule="nonzero" />
	</g>
</g>
</svg>
